project_02/img/icondev/intranet-dev.svg

<svg width="38" height="40" viewBox="0 0 38 40" fill="none" xmlns="http://www.w3.org/2000/svg">
<path d="M3.33301 25V36.667C3.33301 38.021 4.16701 39.167 5.83301 39.167M5.83301 39.167C7.50001 39.167 8.33301 38.092 8.33301 36.667V35H34.167V36.667C34.167 38.047 33.047 39.167 31.667 39.167H5.83301ZM30 14.167V1.667C30 1.207 29.627 0.833 29.167 0.833H4.16701C3.70701 0.833 3.33301 1.207 3.33301 1.667V9.323M30 35V27.5M5.00001 5.833H28.333M5.83301 3.333H7.50001M8.33301 3.333H10" stroke="#2998FF" stroke-width="1.4" stroke-linejoin="round"/>
<path d="M30.833 16.667L34.167 20M33.387 14.113L20.962 26.574L19.697 31.162L24.277 29.889L36.702 17.429C37.024 17.104 36.915 16.471 36.458 16.013L34.8 14.356C34.343 13.898 33.71 13.789 33.387 14.113ZM0.833008 23.333H19.167V10.833H0.833008V23.333Z" stroke="#2998FF" stroke-width="1.4" stroke-linejoin="round"/>
<path d="M6.66699 19.334L4.16699 17.084L6.66699 14.834M13.333 19.334L15.833 17.084L13.333 14.834M11.667 13.333L8.33299 20.833M21.667 12.5H27.5M21.667 15H27.5M13.333 26.667H17.5M13.333 29.167H15.833M21.667 17.5H25M6.66699 30.833H10.833V26.667H6.66699V30.833Z" stroke="#2998FF" stroke-width="1.4" stroke-linejoin="round"/>
</svg>

<svg xmlns="http://www.w3.org/2000/svg" width="38" height="40" viewBox="0 0 38 40">
    <g fill="none" fill-rule="evenodd" stroke="#33CAC0" stroke-linejoin="round" stroke-width="1.4">
        <path d="M3.333 25v11.667c0 1.354.834 2.5 2.5 2.5 1.667 0 2.5-1.075 2.5-2.5V35h25.834v1.667c0 1.38-1.12 2.5-2.5 2.5H5.833M30 14.167v-12.5c0-.46-.373-.834-.833-.834h-25c-.46 0-.834.374-.834.834v7.656M30 35L30 27.5M5 5.833L28.333 5.833M5.833 3.333L7.5 3.333M8.333 3.333L10 3.333"/>
        <path d="M33.387 14.113L20.962 26.574l-1.265 4.588 4.58-1.273 12.425-12.46c.322-.325.213-.958-.244-1.416L34.8 14.356c-.457-.458-1.09-.567-1.413-.243zM30.833 16.667L34.167 20M.833 23.333L19.167 23.333 19.167 10.833.833 10.833z"/>
        <path d="M6.667 19.334L4.167 17.084 6.667 14.834M13.333 19.334L15.833 17.084 13.333 14.834M11.667 13.333L8.333 20.833M21.667 12.5L27.5 12.5M21.667 15L27.5 15M13.333 26.667L17.5 26.667M13.333 29.167L15.833 29.167M21.667 17.5L25 17.5M6.667 30.833L10.833 30.833 10.833 26.667 6.667 26.667z"/>
    </g>
</svg>
